X: 07070
T: LUTHER'S HORNPIPE
C: Bob McQuillen 10 Apr 89
B: Bob's Note Book 7 #70
%R: hornpipe, reel
Z: 2020 John Chambers <jc:trillian.mit.edu>
M: C
L: 1/8
K: D	% and Bm
fg \
| abag f2fe | dfdB A2AG | FAdA FAdf | edcB A2fg |
| abag fedc | dfdB A2AG | FAdA cdec | A2d2 d2 :|
|: dc \
| Bcde fdBd | fbag f2dB | ABcd efdB | c2A2 A2dc |
| Bcde f2dB | ABcd ecAc | Bcdf egfe | d2B2 B2 :|
%%begintext align
%% Luther Block really
%% deserves a tune. I mean _really_! If you've ever
%% seen him in action, you know what I mean -
%% he's one of the hardest workers I ever saw. The great
%% West Coast Dance scene would not be what it is today
%% without him. Thanks a lot, Luther, for all you have
%% done for all of us.
%%endtext

%%sep 1 1 500

%%sep 1 1 500

